X:1437
L:1/16
M:2/4
K:G
 gf |"G" g2G2- G2BG |"D7" FADF"G" G2Bc |"G" dBed"C" cBAG |"D7" FAD2- D2gf |"G" g2G2- G2BG | 
"D7" FADF"G" G2AB |"C" cedc"D7" BAGF |"G" G2G2 G2 :: dc |"G" BgBc d2cB |"Am" caAB"D7" c2BA | 
"G" Bded"Em" cBAG |"Am" FAD2-"D7" D2ga |"G" bgfg"C" dgfg |"G/B" bgfg"C" dgfg |"D7" edcB AGFA | 
"G" G2B2 G2 :|

